source/images/icons/icons-heart.svg

<svg width="20.000000" height="20.000000" viewBox="0 0 20 20" fill="none" xmlns="http://www.w3.org/2000/svg" xmlns:xlink="http://www.w3.org/1999/xlink">
	<desc>
			Created with Pixso.
	</desc>
	<defs>
		<clipPath id="clip28_451">
			<rect id="icons/heart" width="20.000000" height="20.000000" fill="white" fill-opacity="0"/>
		</clipPath>
	</defs>
	<g clip-path="url(#clip28_451)">
		<path id="Vector" d="M9.8999 19C9.6001 19 9.30005 18.9 9.1001 18.6C3.69995 12.5 2.3999 11.1 2.1001 10.7C1.3999 9.8 1 8.6 1 7.4C1 4.4 3.3999 2 6.5 2C7.80005 2 9 2.5 10 3.3C11 2.5 12.3 2 13.5 2C16.5 2 19 4.4 19 7.4C19 8.7 18.5 9.9 17.7 10.8L10.7 18.7C10.5 18.9 10.3 19 9.8999 19ZM3.8999 9.5C4.19995 9.9 7.3999 13.5 10 16.4L16.2 9.4C16.7 8.9 16.8999 8.2 16.8999 7.4C16.8999 5.6 15.3999 4.1 13.6001 4.1C12.6001 4.1 11.6001 4.6 10.8999 5.4C10.6001 5.7 10.3 5.8 10 5.8C9.69995 5.8 9.3999 5.6 9.19995 5.4C8.5 4.6 7.5 4.1 6.5 4.1C4.69995 4.1 3.19995 5.6 3.19995 7.4C3.1001 8.3 3.5 9 3.8999 9.5Z" fill="#000000" fill-opacity="1.000000" fill-rule="nonzero"/>
	</g>
</svg>

<svg width="20" height="20" viewBox="0 0 20 20" fill="none" xmlns="http://www.w3.org/2000/svg"><defs><clipPath id="a"><path fill="#fff" fill-opacity="0" d="M0 0h20v20H0z"/></clipPath></defs><g clip-path="url(#a)"><path d="M9.9 19c-.3 0-.6-.1-.8-.4-5.4-6.1-6.7-7.5-7-7.9C1.4 9.8 1 8.6 1 7.4 1 4.4 3.4 2 6.5 2 7.8 2 9 2.5 10 3.3c1-.8 2.3-1.3 3.5-1.3 3 0 5.5 2.4 5.5 5.4 0 1.3-.5 2.5-1.3 3.4l-7 7.9c-.2.2-.4.3-.8.3Zm-6-9.5c.3.4 3.5 4 6.1 6.9l6.2-7c.5-.5.7-1.2.7-2 0-1.8-1.5-3.3-3.3-3.3-1 0-2 .5-2.7 1.3-.3.3-.6.4-.9.4-.3 0-.6-.2-.8-.4-.7-.8-1.7-1.3-2.7-1.3-1.8 0-3.3 1.5-3.3 3.3-.1.9.3 1.6.7 2.1Z" fill="#000"/></g></svg>
